public/logos/HD.svg

<?xml version="1.0" encoding="UTF-8"?>
<svg xmlns="http://www.w3.org/2000/svg" xmlns:xlink="http://www.w3.org/1999/xlink" width="176pt" height="57.62pt" viewBox="0 0 176 57.62" version="1.1">
<defs>
<clipPath id="clip1">
  <path d="M 0 21 L 33 21 L 33 57.621094 L 0 57.621094 Z M 0 21 "/>
</clipPath>
</defs>
<g id="surface1">
<g clip-path="url(#clip1)" clip-rule="nonzero">
<path style=" stroke:none;fill-rule:nonzero;fill:rgb(6.266785%,5.734253%,5.047607%);fill-opacity:1;" d="M 20.097656 22.554688 L 0 57.621094 L 6.792969 57.195312 L 12.402344 47.53125 L 24.171875 46.199219 L 26.335938 55.558594 L 32.851562 55.257812 L 25.25 21.621094 L 20.097656 22.554688 M 15.703125 41.523438 L 21.253906 30.835938 L 23.019531 40.59375 L 15.703125 41.523438 "/>
</g>
<path style=" stroke:none;fill-rule:nonzero;fill:rgb(6.266785%,5.734253%,5.047607%);fill-opacity:1;" d="M 39.511719 55.070312 L 45.710938 54.570312 L 51.480469 17.636719 L 45.390625 18.722656 L 39.511719 55.070312 "/>
<path style=" stroke:none;fill-rule:nonzero;fill:rgb(6.266785%,5.734253%,5.047607%);fill-opacity:1;" d="M 82.589844 20.0625 C 80.371094 12.972656 72.851562 14.699219 72.851562 14.699219 L 60.535156 16.585938 L 54.660156 54.183594 L 60.882812 53.78125 L 65.691406 21.878906 L 70.597656 21.183594 C 70.597656 21.183594 71.816406 21.003906 73.164062 21.277344 C 75.257812 21.65625 77.65625 23.105469 76.332031 27.847656 C 75.066406 34.210938 64.75 34.597656 64.75 34.597656 L 74.679688 52.636719 L 82.34375 52.09375 L 74.320312 38.273438 C 74.324219 38.273438 84.816406 33.980469 82.589844 20.0625 "/>
<path style=" stroke:none;fill-rule:nonzero;fill:rgb(6.266785%,5.734253%,5.047607%);fill-opacity:1;" d="M 121.363281 7.078125 C 121.363281 7.078125 118.519531 6.9375 115.132812 7.519531 C 111.757812 8.09375 104.613281 9.246094 104.613281 9.246094 L 99.378906 50.847656 L 110.296875 50.015625 C 110.296875 50.015625 121.785156 50.050781 127.878906 39.902344 C 128.945312 38.433594 135.921875 25.148438 129.859375 12.605469 C 129.859375 12.605469 126.371094 6.914062 121.363281 7.078125 M 118.644531 40.230469 C 114.558594 43.253906 107.105469 43.046875 107.105469 43.046875 L 110.3125 15.617188 C 110.3125 15.617188 115.105469 14.742188 116.023438 14.621094 C 116.949219 14.488281 119.003906 14.476562 120.171875 14.765625 C 124.496094 15.054688 125.34375 20.964844 125.34375 20.964844 C 125.34375 20.964844 127.800781 32.832031 118.644531 40.230469 "/>
<path style=" stroke:none;fill-rule:nonzero;fill:rgb(6.266785%,5.734253%,5.047607%);fill-opacity:1;" d="M 163.125 0.0390625 C 147.488281 -0.988281 140.65625 17.980469 140.058594 20.480469 C 134.699219 38.984375 145.875 47.765625 151.773438 48.429688 C 167.144531 49.988281 174.027344 32.425781 175.136719 26.675781 C 179.34375 5.703125 167.03125 0.269531 163.125 0.0390625 M 168.234375 27.6875 C 166.992188 33.21875 160.96875 42.355469 152.652344 40.171875 C 151.300781 40.050781 141.089844 34.597656 147.730469 18.148438 C 147.730469 18.148438 152.289062 7.5625 161.269531 8.464844 C 164.765625 8.757812 172 13.816406 168.234375 27.6875 "/>
</g>
</svg>

<svg xmlns="http://www.w3.org/2000/svg" width="176pt" height="76.827" viewBox="0 0 176 57.62"><defs><clipPath id="a"><path d="M0 21h33v36.621H0Zm0 0"/></clipPath></defs><g clip-path="url(#a)"><path d="M20.098 22.555 0 57.62l6.793-.426 5.61-9.664L24.171 46.2l2.164 9.36 6.516-.301L25.25 21.62zm-4.395 18.968 5.55-10.687 1.767 9.758z" style="stroke:none;fill-rule:nonzero;fill:#100f0d;fill-opacity:1"/></g><path d="m39.512 55.07 6.199-.5 5.77-36.933-6.09 1.086zM82.59 20.063c-2.219-7.09-9.738-5.364-9.738-5.364l-12.317 1.887-5.875 37.598 6.223-.403L65.69 21.88l4.907-.695s1.218-.18 2.566.093c2.094.38 4.492 1.828 3.168 6.57-1.266 6.364-11.582 6.75-11.582 6.75l9.93 18.04 7.664-.543-8.024-13.82c.004 0 10.496-4.294 8.27-18.211M121.363 7.078s-2.843-.14-6.23.442c-3.375.574-10.52 1.726-10.52 1.726L99.38 50.848l10.918-.832s11.488.035 17.582-10.114c1.066-1.468 8.043-14.754 1.98-27.297 0 0-3.488-5.69-8.496-5.527m-2.718 33.152c-4.086 3.024-11.54 2.817-11.54 2.817l3.207-27.43s4.793-.875 5.711-.996c.926-.133 2.98-.144 4.149.145 4.324.289 5.172 6.199 5.172 6.199s2.457 11.867-6.7 19.265M163.125.04c-15.637-1.028-22.469 17.94-23.066 20.44-5.36 18.504 5.816 27.286 11.714 27.95 15.372 1.558 22.254-16.004 23.364-21.754C179.344 5.703 167.03.27 163.125.039m5.11 27.649c-1.243 5.53-7.266 14.667-15.583 12.484-1.351-.121-11.562-5.574-4.922-22.024 0 0 4.56-10.585 13.54-9.683 3.496.293 10.73 5.351 6.964 19.223" style="stroke:none;fill-rule:nonzero;fill:#100f0d;fill-opacity:1"/></svg>
